!!!ONB: MCCC : IGH0469_06 : Extracted Monophonic Melody
!!!COM: Handel, George Frideric
!!!OPR: Suite No.3 in D minor
!!!OMV: 6
!!!SCT: HWV 428
!!!ODT: 1720///
**kern
*staff1
=1
*clefG2
*k[b-]
*d:
*M3/8
16dd
16ee
24dd
48cc#
48dd
48cc#
48dd
12cc#
24cc#
=2
8dd
8a
8r
=3
16ff
16gg
24ff
48ee
48ff
48ee
48ff
16ee
32dd
32ee
=4
8ff
8dd
8r
=5
8bb-
8bb-
16aa
16bb-
=6
24aa
48gg
48aa
48gg
48aa
8gg
8ff
=7
8ee
16.dd
32cc#
16dd
16ee
=8
24dd
48cc#
48dd
48cc#
48dd
4cc#
=9
8ee
16ff
16ee
16ff
16gg
=10
32ff
32ff
64r
64ee
32ff
96ee
32ff
48ee[
8.ee]
=11
16cc#
16a
16cc#
16ee
16aa
16ee
=12
16ff
16aa
16ff
16dd
16a
16cc
=13
16b
16g
16b
16dd
16gg
16dd
=14
16ee
16gg
16ee
16cc
16g
16b
=15
16a
16cc
16ff
16ee
16dd
16cc
=16
16dd
16cc
16b
16a
16g#
16f#
=17
16e
16b
16ee
16dd
16cc
16b
=18
16cc
16ee
16b
16ee
16a
16ee
=19
16a-
16ee
16a
16ee
16b
16ee
=20
16cc
16e
16b
16e
16a
16e
=21
16a-
16e
16a
16e
16b
16e
=22
16cc
16a
16dd
16a
16ee
16a
=23
8ff
8g
8a
=24
16b
16g
16cc
16g
16dd
16g
=25
16ee
16dd
16cc
16b
16a
16g
=26
16f
16e
16d
16c
8r
=27
8r
16d
16f
16e
16d
=28
16c
16e
16a
16cc
16b
16a
=29
16g#
16b
16dd
16ff
16ee
16dd
=30
16cc
16ee
16aa
16ccc
16bb-
16aa
=31
16bb-
16dd
16cc#
16dd
16aa-
16dd
=32
16aa
16dd
16cc#
16dd
16ee
16a
=33
4ff
8gg
=34
4cc
8ee
=35
16ff
16aa
16gg
16aa
16ff
16aa
=36
16dd
16ff
16b
16ff
16ee
16dd
=37
16ee
16gg
16ff
16gg
16ee
16gg
=38
16cc
16ee
16dd
16ee
16cc
16ee
=39
16a
16ff
16ee
16ff
16dd
16ff
=40
16b-
16dd
16cc
16dd
16b-
16dd
=41
16a-
16b
16a
16b
16a-
16b
=42
16dd
16ff
16ee
16dd
16cc
16b
=43
16cc
16a
16g#
16a
16dd
16a
=44
16ee
16a
16ee
16aa
16gg
16aa
=45
16ff
16ee
16dd
16bb
16aa
16bb
=46
16aa-
16ee
16aa-
16ccc
16bb
16ccc
=47
16aa
16gg#
16aa
16ccc
16bb
16ccc
=48
16aa
16ee
16aa
16gg
16ff
16ee
=49
16ff
16aa
16gg
16aa
16ff
16aa
=50
16dd
16ff
16b
16ccc
16bb
16aa
=51
16gg#
16bb
16ee
16dd
16cc
16b
=52
16cc
16ee
16dd
16cc
16b
16a
=53
16g#
16b
16e
16d
16c
16B
=54
16c
16e
16d
16c
16B
16A
=55
4.r
=56
16aa
16bb
24aa
48gg#
48aa
48gg#
48aa
16gg#
32ff#
32gg#
=57
8aa
8ee
8r
=58
16cc
16dd
24cc
48b
48cc
48b
48cc
16b
32a
32b
=59
8cc
8a
8r
=60
8ff
16ee
16dd
16cc
16b
=61
16a
16g#
16f#
16e
8dd
=62
16cc
16b
8cc
16b
16a
=63
8e
4a
=64
16dd
16ee
24dd
48cc#
48dd
48cc#
48dd
12cc#
24cc#
=65
8dd
8a
8r
=66
16ff
16gg
24ff
48ee
48ff
48ee
48ff
16ee
32dd
32ee
=67
8ff
8dd
8r
=68
8bb-
8bb-
16aa
16bb-
=69
32aa
32gg
48aa
48gg
48aa
8gg
8ff
=70
8ee
16.dd
32cc#
16dd
16ee
=71
32dd
32cc#
48dd
48cc#
48dd
4cc#
=72
8ee
16ff
16ee
16ff
16gg
=73
32ff
32ff
32ee
32ff
96ee
96ff
24ee[
16ee]
8r
=74
16cc#
16a
16cc#
16ee
16aa
16ee
=75
16ff
16aa
16ff
16dd
16a
16cc
=76
16b
16g
16b
16dd
16gg
16dd
=77
16ee
16gg
16ee
16cc
16g
16b
=78
16a
16cc
16ff
16ee
16dd
16cc
=79
16dd
16cc
16b
16a
16g#
16f#
=80
16e
16b
16ee
16dd
16cc
16b
=81
16cc
16ee
16b
16ee
16a
16ee
=82
16a-
16ee
16a
16ee
16b
16ee
=83
16cc
16e
16b
16e
16a
16e
=84
16a-
16e
16a
16e
16b
16e
=85
16cc
16a
16dd
16a
16ee
16a
=86
8ff
8g
8a
=87
16b
16g
16cc
16g
16dd
16g
=88
16ee
16dd
16cc
16b
16a
16g
=89
16f
16e
16d
16c
8r
=90
8r
16d
16f
16e
16d
=91
16c
16e
16a
16cc
16b
16a
=92
16g#
16b
16dd
16ff
16ee
16dd
=93
16cc
16ee
16aa
16ccc
16bb-
16aa
=94
16bb-
16dd
16cc#
16dd
16aa-
16dd
=95
16aa
16dd
16cc#
16dd
16ee
16a
=96
4ff
8gg
=97
4cc
8ee
=98
16ff
16aa
16gg
16aa
16ff
16aa
=99
16dd
16ff
16b
16ff
16ee
16dd
=100
16ee
16gg
16ff
16gg
16ee
16gg
=101
16cc
16ee
16dd
16ee
16cc
16ee
=102
16a
16ff
16ee
16ff
16dd
16ff
=103
16b-
16dd
16cc
16dd
16b-
16dd
=104
16a-
16b
16a
16b
16a-
16b
=105
16dd
16ff
16ee
16dd
16cc
16b
=106
16cc
16a
16g#
16a
16dd
16a
=107
16ee
16a
16ee
16aa
16gg
16aa
=108
16ff
16ee
16dd
16bb
16aa
16bb
=109
16aa-
16ee
16aa-
16ccc
16bb
16ccc
=110
16aa
16gg#
16aa
16ccc
16bb
16ccc
=111
16aa
16ee
16aa
16gg
16ff
16ee
=112
16ff
16aa
16gg
16aa
16ff
16aa
=113
16dd
16ff
16b
16ccc
16bb
16aa
=114
16gg#
16bb
16ee
16dd
16cc
16b
=115
16cc
16ee
16dd
16cc
16b
16a
=116
16g#
16b
16e
16d
16c
16B
=117
16c
16e
16d
16c
16B
16A
=118
4.r
=119
16aa
16bb
24aa
48gg#
48aa
48gg#
48aa
16gg#
32ff#
32gg#
=120
8aa
8ee
8r
=121
16cc
16dd
24cc
48b
48cc
48b
48cc
16b
32a
32b
=122
8cc
8a
8r
=123
8ff
16ee
16dd
16cc
16b
=124
16a
16g#
16f#
16e
8dd
=125
16cc
16b
8cc
16b
16a
=126
8e
4a
=127
16cc#
16aa
16dd
16aa
16ee
16aa
=128
16ff
16aa
16ee
16aa
16dd
16aa
=129
16cc#
16aa
16dd
16aa
16ee
16aa
=130
16ff
16aa
16dd
16ee
16cc
16dd
=131
16b
16gg
16cc
16gg
16dd
16gg
=132
16ee
16gg
16dd
16gg
16cc
16gg
=133
16b
16gg
16cc
16gg
16dd
16gg
=134
16ee
16gg
16cc
16dd
16b-
16cc
=135
16a
16ff
16b-
16ff
16cc
16ff
=136
16dd
16ff
16cc
16ff
16b-
16ff
=137
16a
16ff
16b-
16ff
16cc
16ff
=138
16dd
16g
16b-
16dd
16gg
16dd
=139
16ee
16a
16cc
16ee
16aa
16ee
=140
16ff
16b-
16dd
16ff
16bb-
16ff
=141
16gg
16cc
16ee
16gg
16ccc
16gg
=142
16aa
16ccc
16gg
16ccc
16ff
16ccc
=143
8ee
8ff
8gg
=144
8aa
8gg
8ff
=145
16ee
16b-
16ff
16b-
16gg
16b-
=146
16a
16f
16b-
16f
16cc
16f
=147
16dd
16cc
16b-
16a
16g
16f
=148
16e
16g
16b-
16dd
16cc
16b-
=149
16a
16cc
16ff
16aa
16gg
16ff
=150
16ee
16dd
16cc
16b-
16a
16g
=151
16a
16cc
16b-
16a
16g
16f
=152
16e
16g
8c
8r
=153
4.r
=154
4.r
=155
16ff
16gg
24ff
48ee
48ff
48ee
48ff
16ee
32dd
32ee
=156
8ff
8cc
8r
=157
16aa
16bb-
24aa
48gg
48aa
48gg
48aa
16gg
32ff
32gg
=158
8aa
8gg
8r
=159
16ff
16bb-
8.aa
16bb-
=160
24aa
48gg
48aa
48gg
48aa
8gg
8ff
=161
8ee
16.ff
32ee
16ff
16gg
=162
8g
4cc
=163
8g
16a
16g
16a
16b-
=164
32a
32a
64r
64g
32a
96g
32a
48g[
8.g]
=165
16e
16cc
16f
16cc
16g
16cc
=166
16a
16cc
16g
16cc
16f
16cc
=167
16e
16cc
16f
16cc
16g
16cc
=168
16a
16b-
16cc
16b-
16a
16g
=169
16f#
16dd
16g
16dd
16a
16dd
=170
16b-
16dd
16a
16dd
16g
16dd
=171
16f#
16dd
16g
16dd
16a
16dd
=172
16b-
16g
16a
16b-
16cc
16dd
=173
8ee-
24dd
48cc
48dd
48cc
48dd
16cc
32b-
32cc
=174
8dd
8a
24b-
48cc
48b-
48a
48r
=175
16b-
16cc
24b-
48a
48b-
48a
48b-
16a
16g
=176
16g
16dd
16ee
16ff#
16gg
16aa
=177
16bb-
16aa
16gg
16ff
16ee
16gg
=178
16aa
16gg
16ff
16ee
16dd
16ff
=179
16gg
16ff
16ee
16ff
16dd
16ee
=180
16cc#
16ee
16a
16b-
16a
16g
=181
16f
16e
16d
16e
16f
16g
=182
16a
16e
16a
16b
16cc#
16a
=183
16dd
16a
16dd
16ff
16ee
16dd
=184
16cc#
16ee
16aa
16gg
16ff
16ee
=185
16ff
16aa
16gg
16aa
16ff
16aa
=186
16dd
16bb-
16aa
16bb-
16dd
16bb-
=187
16ee
16gg
16ff
16gg
16ee
16gg
=188
16cc
16aa
16gg
16aa
16cc
16aa
=189
16dd
16ff
16ee
16ff
16dd
16ff
=190
16b-
16gg
16ff
16gg
16ee
16gg
=191
16cc#
16gg
16ff
16gg
16dd
16gg
=192
16ee
16gg
16dd
16gg
16ee
16gg
=193
4.ff
=194
16r
16dd
16g
16dd
16gg
16dd
=195
4.ee
=196
16r
16cc
16f
16cc
16ff
16cc
=197
4.dd
=198
16b-
16a
16g
16f
16e
16d
=199
16c#
16e
16g
16b-
16a
16g
=200
16f
16a
16dd
16ff
16ee
16dd
=201
16cc#
16ee
16gg
16bb-
16aa
16gg
=202
16ff
16a
16dd
16ff
16ee
16dd
=203
16cc#
16ee
16a
16g
16f
16e
=204
16f
16a
16g
16f
16e
16d
=205
16c#
16e
8r
8r
=206
4.r
=207
4.r
=208
16dd
16ee
24dd
48cc#
48dd
48cc#
48dd
16cc#
32b
32cc#
=209
8dd
8a
8r
=210
16ff
16gg
24ff
48ee
48ff
48ee
48ff
16ee
32dd
32ee
=211
8ff
8dd
8r
=212
8bb-
16aa
16gg
16ff
16ee
=213
16dd
16cc#
16b
16a
32dd
16.gg
=214
32ff
32ff
16ee
16dd
16ff
16ee
16dd
=215
8a
4dd
=216
16cc#
16aa
16dd
16aa
16ee
16aa
=217
16ff
16aa
16ee
16aa
16dd
16aa
=218
16cc#
16aa
16dd
16aa
16ee
16aa
=219
16ff
16aa
16dd
16ee
16cc
16dd
=220
16b
16gg
16cc
16gg
16dd
16gg
=221
16ee
16gg
16dd
16gg
16cc
16gg
=222
16b
16gg
16cc
16gg
16dd
16gg
=223
16ee
16gg
16cc
16dd
16b-
16cc
=224
16a
16ff
16b-
16ff
16cc
16ff
=225
16dd
16ff
16cc
16ff
16b-
16ff
=226
16a
16ff
16b-
16ff
16cc
16ff
=227
16dd
16g
16b-
16dd
16gg
16dd
=228
16ee
16a
16cc
16ee
16aa
16ee
=229
16ff
16b-
16dd
16ff
16bb-
16ff
=230
16gg
16cc
16ee
16gg
16ccc
16gg
=231
16aa
16ccc
16gg
16ccc
16ff
16ccc
=232
8ee
8ff
8gg
=233
8aa
8gg
8ff
=234
16ee
16b-
16ff
16b-
16gg
16b-
=235
16a
16f
16b-
16f
16cc
16f
=236
16dd
16cc
16b-
16a
16g
16f
=237
16e
16g
16b-
16dd
16cc
16b-
=238
16a
16cc
16ff
16aa
16gg
16ff
=239
16ee
16dd
16cc
16b-
16a
16g
=240
16a
16cc
16b-
16a
16g
16f
=241
16e
16g
8c
8r
=242
4.r
=243
4.r
=244
16ff
16gg
24ff
48ee
48ff
48ee
48ff
16ee
32dd
32ee
=245
8ff
8cc
8r
=246
16aa
16bb-
24aa
48gg
48aa
48gg
48aa
16gg
32ff
32gg
=247
8aa
8gg
8r
=248
16ff
16bb-
8.aa
16bb-
=249
24aa
48gg
48aa
48gg
48aa
8gg
8ff
=250
8ee
16.ff
32ee
16ff
16gg
=251
8g
4cc
=252
8g
16a
16g
16a
16b-
=253
32a
32a
64r
64g
32a
96g
32a
48g[
8.g]
=254
16e
16cc
16f
16cc
16g
16cc
=255
16a
16cc
16g
16cc
16f
16cc
=256
16e
16cc
16f
16cc
16g
16cc
=257
16a
16b-
16cc
16b-
16a
16g
=258
16f#
16dd
16g
16dd
16a
16dd
=259
16b-
16dd
16a
16dd
16g
16dd
=260
16f#
16dd
16g
16dd
16a
16dd
=261
16b-
16g
16a
16b-
16cc
16dd
=262
8ee-
24dd
48cc
48dd
48cc
48dd
16cc
32b-
32cc
=263
8dd
8a
24b-
48cc
48b-
48a
48r
=264
16b-
16cc
24b-
48a
48b-
48a
48b-
16a
16g
=265
16g
16dd
16ee
16ff#
16gg
16aa
=266
16bb-
16aa
16gg
16ff
16ee
16gg
=267
16aa
16gg
16ff
16ee
16dd
16ff
=268
16gg
16ff
16ee
16ff
16dd
16ee
=269
16cc#
16ee
16a
16b-
16a
16g
=270
16f
16e
16d
16e
16f
16g
=271
16a
16e
16a
16b
16cc#
16a
=272
16dd
16a
16dd
16ff
16ee
16dd
=273
16cc#
16ee
16aa
16gg
16ff
16ee
=274
16ff
16aa
16gg
16aa
16ff
16aa
=275
16dd
16bb-
16aa
16bb-
16dd
16bb-
=276
16ee
16gg
16ff
16gg
16ee
16gg
=277
16cc
16aa
16gg
16aa
16cc
16aa
=278
16dd
16ff
16ee
16ff
16dd
16ff
=279
16b-
16gg
16ff
16gg
16ee
16gg
=280
16cc#
16gg
16ff
16gg
16dd
16gg
=281
16ee
16gg
16dd
16gg
16ee
16gg
=282
4.ff
=283
16r
16dd
16g
16dd
16gg
16dd
=284
4.ee
=285
16r
16cc
16f
16cc
16ff
16cc
=286
4.dd
=287
16b-
16a
16g
16f
16e
16d
=288
16c#
16e
16g
16b-
16a
16g
=289
16f
16a
16dd
16ff
16ee
16dd
=290
16cc#
16ee
16gg
16bb-
16aa
16gg
=291
16ff
16a
16dd
16ff
16ee
16dd
=292
16cc#
16ee
16a
16g
16f
16e
=293
16f
16a
16g
16f
16e
16d
=294
16c#
16e
8r
8r
=295
4.r
=296
4.r
=297
16dd
16ee
24dd
48cc#
48dd
48cc#
48dd
16cc#
32b
32cc#
=298
8dd
8a
8r
=299
16ff
16gg
24ff
48ee
48ff
48ee
48ff
16ee
32dd
32ee
=300
8ff
8dd
8r
=301
8bb-
16aa
16gg
16ff
16ee
=302
16dd
16cc#
16b
16a
32dd
16.gg
=303
32ff
32ff
16ee
16dd
16ff
16ee
16dd
=304
8a
4dd
==
*-
